X: 74
M: C|
L: 1/8
K: D
d2ef gfed | cdef e2ag | f2d2 efge | f2 d4 A2 |\
d2ef gfed | cdef e2ag | f2g2 a2^g2 | a6 :|
|: e2 |\
cdec ece2 | cd e4 f2 | efge edcd | e2 A4 A2 |\
agfe d2d2 | gfed c2A2 | defd efge | f2 d4 :|

